!!!!SEGMENT: Ser1001a-Missa_Philomena-Kyrie.krn
!!!id: Ser1001a
!!!AGN: Mass; Kyrie
!!!voices: 3-4
!!!COM: Claudin de Sermisy
!!!OPR: Missa Philomena
!!!OTL: Kyrie
**kern	**text	**kern	**text	**kern	**text	**kern	**text
*part4	*part4	*part3	*part3	*part2	*part2	*part1	*part1
*staff4	*staff4	*staff3	*staff3	*staff2	*staff2	*staff1	*staff1
*I"Bassus	*	*I"Tenor	*	*I"Altus	*	*I"Superius	*
*I'B	*	*I'T	*	*I'A	*	*I'S	*
*clefF4	*	*clefGv2	*	*clefG2	*	*clefG2	*
*k[]	*	*k[]	*	*k[]	*	*k[]	*
*C:	*	*C:	*	*C:	*	*C:	*
*M2/1	*	*M2/1	*	*M2/1	*	*M2/1	*
*met(C|)	*	*met(C|)	*	*met(C|)	*	*met(C|)	*
!!section: Kyrie I
!!!OMD: Kyrie I
0r	.	0r	.	1.g	Ky-	1r	.
.	.	.	.	.	.	[1dd	Ky-
.	.	.	.	2g	-ri-	.	.
=1	=1	=1	=1	=1	=1	=1	=1
0r	.	0r	.	2f	.	2dd]	.
.	.	.	.	2d	.	2dd	-ri-
.	.	.	.	2.f	.	2cc	.
.	.	.	.	.	.	2a	.
.	.	.	.	4g	.	.	.
=2	=2	=2	=2	=2	=2	=2	=2
0r	.	0r	.	1a	.	2.cc	.
.	.	.	.	.	.	4dd	.
.	.	.	.	2g	.	1ee	.
.	.	.	.	[2a	-e	.	.
=3	=3	=3	=3	=3	=3	=3	=3
0r	.	0r	.	2a]	.	1ff	.
.	.	.	.	2d	e-	.	.
.	.	.	.	1a	-le-	2ee	.
.	.	.	.	.	.	[2ff	.
=4	=4	=4	=4	=4	=4	=4	=4
0r	.	0r	.	1b	-i-	4ff]	.
.	.	.	.	.	.	4ee	.
.	.	.	.	.	.	2dd	.
.	.	.	.	2a	.	2cc	-e
.	.	.	.	[2g	.	[2b	e-
=5	=5	=5	=5	=5	=5	=5	=5
0r	.	0r	.	4g]	.	4b]	.
.	.	.	.	4f	.	4a	.
.	.	.	.	4e	.	1dd	.
.	.	.	.	4d	.	.	.
.	.	.	.	1e	.	.	.
.	.	.	.	.	.	2cc#i	-le-
=6	=6	=6	=6	=6	=6	=6	=6
1.G	Ky-	1r	.	1d	-son,	4dd	.
.	.	.	.	.	.	4cc	.
.	.	.	.	.	.	4b	.
.	.	.	.	.	.	4a	.
.	.	[1d	Ky-	1r	.	1b	-i-
2G	-ri-	.	.	.	.	.	.
=7	=7	=7	=7	=7	=7	=7	=7
2F	-e	2d]	.	0r	.	[0a	-son,
2D	e-	2d	-ri-	.	.	.	.
2.F	-le-	2c	-e	.	.	.	.
.	.	2A	e-	.	.	.	.
4G	.	.	.	.	.	.	.
=8	=8	=8	=8	=8	=8	=8	=8
1A	.	2.c	-le-	0r	.	0a]	.
.	.	4d	.	.	.	.	.
2.A	-i-	2e	.	.	.	.	.
.	.	2f	.	.	.	.	.
4B	.	.	.	.	.	.	.
=9	=9	=9	=9	=9	=9	=9	=9
2c	.	2e	.	1.g	Ky-	0r	.
1d	.	2d	.	.	.	.	.
.	.	1e	.	.	.	.	.
2c#i	.	.	.	2g	-ri-	.	.
=10	=10	=10	=10	=10	=10	=10	=10
2.d	.	2d	.	2f	-e	1r	.
.	.	2.f	-i-	2d	e-	.	.
4c	.	.	.	.	.	.	.
4d	.	.	.	1f	-le-	[1dd	Ky-
4c	.	4e	.	.	.	.	.
4B	.	4d	.	.	.	.	.
4A	.	4c	.	.	.	.	.
=11	=11	=11	=11	=11	=11	=11	=11
1B	.	1d	.	1g	.	2dd]	.
.	.	.	.	.	.	2dd	-ri-
[1A	-son,	1e	-son,	2a	.	2cc	-e
.	.	.	.	[2cc	.	2a	e-
=12	=12	=12	=12	=12	=12	=12	=12
1A]	.	2r	.	4cc]	.	1cc	-le-
.	.	.	.	4b	.	.	.
.	.	1e	Ky-	1a	.	.	.
1r	.	.	.	.	.	1b	-i-
.	.	2e	-ri-	2g	.	.	.
=13	=13	=13	=13	=13	=13	=13	=13
1r	.	2A	-e	2e	.	1a	-son,
.	.	2.d	e-	2.f	.	.	.
2r	.	.	.	.	.	1dd	.
.	.	4c	.	4g	.	.	.
[2d	Ky-	4B	.	[2a	.	.	.
.	.	4A	.	.	.	.	.
=14	=14	=14	=14	=14	=14	=14	=14
2d]	.	1B	.	2a]	.	0r	.
2d	-ri-	.	.	2g	.	.	.
2D	-e	2A	-le-	2f	.	.	.
[2G	e-	[2B	.	2d	.	.	.
=15	=15	=15	=15	=15	=15	=15	=15
4G]	.	4B]	.	2.e	.	1.gg	Ky-
4F	.	4A	.	.	.	.	.
4E	.	1d	.	.	.	.	.
4D	.	.	.	4f	.	.	.
1E	-lei-	.	.	2.g	.	.	.
.	.	2c#i	-i-	.	.	2gg	-ri-
.	.	.	.	4a	.	.	.
=16	=16	=16	=16	=16	=16	=16	=16
[0D	-son,	1d	-son,	2b	.	2ff	-e
.	.	.	.	2a	-i-	2dd	e-
.	.	2r	.	1a	-son,	[1ff	-le-
.	.	[2d	Ky-	.	.	.	.
=17	=17	=17	=17	=17	=17	=17	=17
1D]	.	2d]	.	2r	.	1ff]	.
.	.	2d	-ri-	1a	Ky-	.	.
1r	.	2A	-e	.	.	1ee	-i-
.	.	2c	e-	2a	-ri-	.	.
=18	=18	=18	=18	=18	=18	=18	=18
1r	.	1B	-le-	4d	.	1dd	.
.	.	.	.	4e	.	.	.
.	.	.	.	4f	.	.	.
.	.	.	.	4d	.	.	.
2r	.	4A	.	1e	-e,	[1cc	.
.	.	4B	.	.	.	.	.
[2A	Ky-	4c	.	.	.	.	.
.	.	4d	.	.	.	.	.
=19	=19	=19	=19	=19	=19	=19	=19
2A]	.	2e	.	1a	.	1cc]	.
2A	-ri-	2.f	.	.	.	.	.
2D	-e	.	.	1r	.	1dd	-son,
.	.	4e	.	.	.	.	.
[2G	e-	4d	.	.	.	.	.
.	.	4c	.	.	.	.	.
=20	=20	=20	=20	=20	=20	=20	=20
4G]	.	4B	.	1.g	Ky-	0r	.
4F	.	4A	.	.	.	.	.
4E	.	1d	.	.	.	.	.
4D	.	.	.	.	.	.	.
1E	-lei-	.	.	.	.	.	.
.	.	2c#i	.	2g	-ri-	.	.
=21	=21	=21	=21	=21	=21	=21	=21
0D	-son,	2d	-i-	2f	.	1r	.
.	.	2.f	.	2d	.	.	.
.	.	.	.	1f	.	2r	.
.	.	4e	.	.	.	.	.
.	.	4d	.	.	.	[2dd	Ky-
.	.	4c	.	.	.	.	.
=22	=22	=22	=22	=22	=22	=22	=22
1r	.	1B	.	1g	-e	2dd]	.
.	.	.	.	.	.	2dd	-ri-
2r	.	1A	-son,	2a	e-	2cc	-e
[2A	Ky-	.	.	[2cc	-le-	2a	.
=23	=23	=23	=23	=23	=23	=23	=23
2A]	.	0r	.	4cc]	.	1.cc	e-
.	.	.	.	4b	.	.	.
2A	-ri-	.	.	2a	.	.	.
2.c	-e	.	.	2g	.	.	.
.	.	.	.	4e	.	2cc	-le-
4d	.	.	.	4f	.	.	.
=24	=24	=24	=24	=24	=24	=24	=24
2e	e-	0r	.	4g	.	2b	-i-
.	.	.	.	4e	.	.	.
2f	-le-	.	.	1a	.	2a	.
1e	-i-	.	.	.	.	1b	.
.	.	.	.	2g#i	-i-	.	.
=25	=25	=25	=25	=25	=25	=25	=25
1A	-son,	2r	.	1a	-son,	0a	-son,
.	.	2c	Ky-	.	.	.	.
1r	.	2d	-ri-	2r	.	.	.
.	.	2d	-e	[2d	Ky-	.	.
=26	=26	=26	=26	=26	=26	=26	=26
0r	.	1f	e-	2d]	.	2r	.
.	.	.	.	2d	-ri-	1a	Ky-
.	.	2d	-le-	2.f	.	.	.
.	.	[2f	.	.	.	2a	-ri-
.	.	.	.	4g	.	.	.
=27	=27	=27	=27	=27	=27	=27	=27
1r	.	2f]	.	4a	.	2.cc	-e
.	.	.	.	4b	.	.	.
.	.	4e	.	2.cc	.	.	.
.	.	4d	.	.	.	4dd	.
2r	.	2c	.	.	.	2ee	.
.	.	.	.	4b	.	.	.
[2D	Ky-	2d	.	4a	.	[2ff	e-
.	.	.	.	4g	.	.	.
=28	=28	=28	=28	=28	=28	=28	=28
2D]	.	2A	.	1a	-e	4ff]	.
.	.	.	.	.	.	4ee	.
2D	-ri-	2.f	.	.	.	2dd	.
2.F	-e	.	.	[1a	e-	2cc	-le-
.	.	4e	.	.	.	.	.
.	.	2d	.	.	.	2ff	.
4G	.	.	.	.	.	.	.
=29	=29	=29	=29	=29	=29	=29	=29
2A	e-	2c	.	2a]	.	2ee	.
2B	-le-	2d	.	2g	-le-	1dd	-i-
1A	-i-	1e	-i-	1a	-i-	.	.
.	.	.	.	.	.	2cc#i	.
=30	=30	=30	=30	=30	=30	=30	=30
00D	-son.	00d	-son.	00f	-son.	00dd	-son.
=31||	=31||	=31||	=31||	=31||	=31||	=31||	=31||
*M2/1	*	*M2/1	*	*M2/1	*	*M2/1	*
*met(C|)	*	*met(C|)	*	*met(C|)	*	*met(C|)	*
!!section: Christe
!!!OMD: Christe
0r	.	0r	.	0r	.	1.dd	Chri-
.	.	.	.	.	.	2dd	-ste
=32	=32	=32	=32	=32	=32	=32	=32
0r	.	2r	.	0r	.	4cc	.
.	.	.	.	.	.	4b	.
.	.	1d	Chri-	.	.	4a	.
.	.	.	.	.	.	4g	.
.	.	.	.	.	.	2a	.
.	.	2d	-ste	.	.	[2b	e-
=33	=33	=33	=33	=33	=33	=33	=33
0r	.	2c	e-	1r	.	4b]	.
.	.	.	.	.	.	4a	.
.	.	2A	.	.	.	1a	-le-
.	.	1B	-le-	1d	Chri-	.	.
.	.	.	.	.	.	2g#i	.
=34	=34	=34	=34	=34	=34	=34	=34
0r	.	1A	-i-	2e	.	1.a	.
.	.	.	.	1f	.	.	.
.	.	1d	.	.	.	.	.
.	.	.	.	4e	.	2b	.
.	.	.	.	4d	.	.	.
=35	=35	=35	=35	=35	=35	=35	=35
0r	.	2e	.	2c	.	2cc	.
.	.	1f	.	2cc	-ste	4a	.
.	.	.	.	.	.	4b	.
.	.	.	.	2.a	e-	4cc	.
.	.	.	.	.	.	4b	.
.	.	4e	.	.	.	4cc	.
.	.	4d	.	4b	.	4dd	.
=36	=36	=36	=36	=36	=36	=36	=36
0r	.	2c	.	2cc	.	2ee	.
.	.	1d	.	2a	-le-	2.ff	.
.	.	.	.	2b	.	.	.
.	.	.	.	.	.	4ee	.
.	.	2c	.	[2cc	.	[2ee	-i-
=37	=37	=37	=37	=37	=37	=37	=37
0r	.	2A	.	4cc]	.	4ee]	.
.	.	.	.	4b	.	4dd	.
.	.	2c	.	1a	.	4ee	.
.	.	.	.	.	.	4cc	.
.	.	1B	.	.	.	1dd	.
.	.	.	.	2g#i	-i-	.	.
=38	=38	=38	=38	=38	=38	=38	=38
0r	.	1A	-son	2a	-son	0cc	-son,
.	.	.	.	2.A	Chri-	.	.
.	.	2r	.	.	.	.	.
.	.	.	.	4B	.	.	.
.	.	[2A	Chri-	4c	.	.	.
.	.	.	.	4d	.	.	.
=39	=39	=39	=39	=39	=39	=39	=39
0r	.	4A]	.	4e	.	0cc	Chri-
.	.	4B	.	4d	.	.	.
.	.	4c	.	4e	.	.	.
.	.	4d	.	4f	.	.	.
.	.	2e	.	2g	.	.	.
.	.	[2f	-ste	[2a	-ste	.	.
=40	=40	=40	=40	=40	=40	=40	=40
0r	.	4f]	.	4a]	.	1dd	.
.	.	4e	.	4g	.	.	.
.	.	1d	.	4a	.	.	.
.	.	.	.	4f	.	.	.
.	.	.	.	1g	.	1ee	.
.	.	2c	e-	.	.	.	.
=41	=41	=41	=41	=41	=41	=41	=41
0r	.	2.d	-le-	2f	e-	1ff	-ste
.	.	.	.	2.a	-le-	.	.
.	.	4B	.	.	.	.	.
.	.	2c	.	.	.	2ee	e-
.	.	.	.	4g	.	.	.
.	.	2d	.	4f	.	[2ff	-le-
.	.	.	.	4e	.	.	.
=42	=42	=42	=42	=42	=42	=42	=42
0r	.	1B	-i-	2d	.	4ff]	.
.	.	.	.	.	.	4ee	.
.	.	.	.	2f	.	1dd	.
.	.	1A	-son,	1e	.	.	.
.	.	.	.	.	.	2cc#i	-i-
=43	=43	=43	=43	=43	=43	=43	=43
0r	.	2r	.	4d	.	0dd	-son,
.	.	.	.	4e	.	.	.
.	.	1d	Chri-	4f	.	.	.
.	.	.	.	4g	.	.	.
.	.	.	.	2a	.	.	.
.	.	2d	-ste	2b	-i-	.	.
=44	=44	=44	=44	=44	=44	=44	=44
0r	.	1e	e-	2g	-son,	0r	.
.	.	.	.	2.cc	e-	.	.
.	.	2c	-le-	.	.	.	.
.	.	.	.	4b	.	.	.
.	.	[2d	-i-	4a	.	.	.
.	.	.	.	4g	.	.	.
=45	=45	=45	=45	=45	=45	=45	=45
0r	.	4d]	.	4f	.	1.dd	Chri-
.	.	4c	.	4e	.	.	.
.	.	4B	.	1a	.	.	.
.	.	4A	.	.	.	.	.
.	.	1B	.	.	.	.	.
.	.	.	.	2g	.	2dd	-ste
=46	=46	=46	=46	=46	=46	=46	=46
0r	.	1A	-son,	2e	-le-	2.cc	e-
.	.	.	.	2.f	.	.	.
.	.	.	.	.	.	8bL	.
.	.	.	.	.	.	8aJ	.
.	.	1r	.	.	.	2cc	.
.	.	.	.	4e	.	.	.
.	.	.	.	4d	.	[2b	-le-
.	.	.	.	4c	.	.	.
=47	=47	=47	=47	=47	=47	=47	=47
0r	.	2r	.	4d	.	2b]	.
.	.	.	.	4c	.	.	.
.	.	1d	Chri-	4B	.	2.a	-i-
.	.	.	.	4A	.	.	.
.	.	.	.	1B	.	.	.
.	.	.	.	.	.	8g#iL	.
.	.	.	.	.	.	8f#iJ	.
.	.	2d	-ste	.	.	2g#i	.
=48	=48	=48	=48	=48	=48	=48	=48
0r	.	1e	e-	4A	.	0a	-son,
.	.	.	.	4B	.	.	.
.	.	.	.	4c	.	.	.
.	.	.	.	4d	.	.	.
.	.	2c	-le-	2e	.	.	.
.	.	[2d	-i-	[2f	.	.	.
=49	=49	=49	=49	=49	=49	=49	=49
0r	.	4d]	.	4f]	.	2r	.
.	.	4c	.	4e	.	.	.
.	.	4B	.	1a	.	1dd	Chri-
.	.	4A	.	.	.	.	.
.	.	1B	.	.	.	.	.
.	.	.	.	2g#i	.	2dd	-ste
=50	=50	=50	=50	=50	=50	=50	=50
0r	.	1A	-son,	1a	-i-	1cc	e-
.	.	2r	.	2b	.	1dd	.
.	.	[2d	e-	[2a	.	.	.
=51	=51	=51	=51	=51	=51	=51	=51
0r	.	2d]	.	4a]	.	2.a	-le-
.	.	.	.	4g	.	.	.
.	.	2d	-le-	1f	.	.	.
.	.	.	.	.	.	4b	.
.	.	1c	-i-	.	.	4cc	.
.	.	.	.	.	.	4dd	.
.	.	.	.	2e	.	[2ee	.
=52	=52	=52	=52	=52	=52	=52	=52
0r	.	1d	-son,	2.f	.	2ee]	.
.	.	.	.	.	.	1dd	.
.	.	.	.	4g	.	.	.
.	.	1A	.	1e	.	.	.
.	.	.	.	.	.	2cc#i	.
=53	=53	=53	=53	=53	=53	=53	=53
0r	.	2r	.	2.d	.	2dd	-i-
.	.	1d	e-	.	.	1ff	.
.	.	.	.	4e	.	.	.
.	.	.	.	4f	.	.	.
.	.	.	.	4g	.	.	.
.	.	2d	-le-	[2a	.	2ff	.
=54	=54	=54	=54	=54	=54	=54	=54
0r	.	1c	-i-	2a]	.	1ee	.
.	.	.	.	2g	.	.	.
.	.	1d	.	1f	.	1dd	.
=55	=55	=55	=55	=55	=55	=55	=55
00r	.	00A	-son.	00e	-son.	00cc	-son.
=56||	=56||	=56||	=56||	=56||	=56||	=56||	=56||
*M2/1	*	*M2/1	*	*M2/1	*	*M2/1	*
*met(C|)	*	*met(C|)	*	*met(C|)	*	*met(C|)	*
!!section: Kyrie II
!!!OMD: Kyrie II
1A	Ky-	0r	.	1r	.	0r	.
2.c	-ri-	.	.	1A	Ky-	.	.
4B	.	.	.	.	.	.	.
=57	=57	=57	=57	=57	=57	=57	=57
4A	.	0r	.	2.c	-ri-	0r	.
4G	.	.	.	.	.	.	.
1A	.	.	.	.	.	.	.
.	.	.	.	4d	.	.	.
.	.	.	.	2e	-e	.	.
2D	-e	.	.	[2f	e-	.	.
=58	=58	=58	=58	=58	=58	=58	=58
1D	e-	1A	Ky-	2f]	.	0r	.
.	.	.	.	4e	.	.	.
.	.	.	.	4d	.	.	.
1A	-le-	2.c	-ri-	2.e	.	.	.
.	.	4d	.	4f	.	.	.
=59	=59	=59	=59	=59	=59	=59	=59
2G	.	2e	-e	2g	.	0r	.
2F	.	1f	e-	1a	-le-	.	.
1B-i	-i-	.	.	.	.	.	.
.	.	4e	.	2g	-i-	.	.
.	.	4d	.	.	.	.	.
=60	=60	=60	=60	=60	=60	=60	=60
0A	-son,	2f	.	0a	-son,	1r	.
.	.	2.e	-le-	.	.	.	.
.	.	.	.	.	.	1a	Ky-
.	.	4d	.	.	.	.	.
.	.	4c	.	.	.	.	.
.	.	4B	.	.	.	.	.
=61	=61	=61	=61	=61	=61	=61	=61
0r	.	2.A	.	2r	.	2.cc	-ri-
.	.	.	.	2a	Ky-	.	.
.	.	4B	.	.	.	4dd	.
.	.	2c	.	2g	.	2ee	.
.	.	2A	.	2a	-ri-	[2ff	.
=62	=62	=62	=62	=62	=62	=62	=62
0r	.	1B	-i-	2f	-e	2ff]	.
.	.	.	.	2g	.	4ee	.
.	.	.	.	.	.	4dd	.
.	.	[1A	-son,	2a	.	2ff	.
.	.	.	.	[2cc	e-	[2ee	.
=63	=63	=63	=63	=63	=63	=63	=63
1r	.	1A]	.	4cc]	.	4ee]	.
.	.	.	.	4b	.	4dd	.
.	.	.	.	4a	.	4cc	.
.	.	.	.	4g	.	4b	.
2r	.	1r	.	2f	.	2a	.
[2c	e-	.	.	[2e	-le-	2g	.
=64	=64	=64	=64	=64	=64	=64	=64
4c]	.	2r	.	4e]	.	1cc	-e
4B	.	.	.	4d	.	.	.
2A	.	2c	Ky-	4e	.	.	.
.	.	.	.	4f	.	.	.
2G	-le-	2d	-ri-	2g	.	2b	e-
2F	.	[2f	-e	2c	.	[2a	-le-
=65	=65	=65	=65	=65	=65	=65	=65
1B-i	-i-	4f]	.	1d	.	2a]	.
.	.	4e	.	.	.	.	.
.	.	1d	e-	.	.	2g	-i-
1A	-son,	.	.	1e	-i-	[1a	-son,
.	.	2c#i	-lei-	.	.	.	.
=66	=66	=66	=66	=66	=66	=66	=66
2r	.	0d	-son,	[0f	-son,	0a]	.
1D	Ky-	.	.	.	.	.	.
2D	-ri-	.	.	.	.	.	.
=67	=67	=67	=67	=67	=67	=67	=67
2.F	-e	2r	.	1f]	.	2r	.
.	.	2c	Ky-	.	.	1a	Ky-
4E	.	.	.	.	.	.	.
1D	.	1d	-ri-	1f	Ky-	.	.
.	.	.	.	.	.	2a	-ri-
=68	=68	=68	=68	=68	=68	=68	=68
2C	e-	0e	-e	1g	-ri-	2.cc	-e
2c	-le-	.	.	.	.	.	.
.	.	.	.	.	.	4b	.
2A	-i-	.	.	2a	-e	4cc	.
.	.	.	.	.	.	4dd	.
[2c	.	.	.	2g	e-	[2ee	.
=69	=69	=69	=69	=69	=69	=69	=69
4c]	.	2.e	e-	4c	.	4ee]	.
4B	.	.	.	4d	.	4dd	.
2A	.	.	.	4e	.	2cc	.
.	.	4d	.	4f	.	.	.
2G	.	2e	-le-	2g	.	2b	e-
2F	.	[2f	-i-	2c	-le-	[2a	-le-
=70	=70	=70	=70	=70	=70	=70	=70
1B-i	.	2f]	.	4d	.	2a]	.
.	.	.	.	4e	.	.	.
.	.	4e	.	4f	.	1dd	.
.	.	4d	.	4g	.	.	.
1A	.	1e	.	1a	-i-	.	.
.	.	.	.	.	.	2cc#i	-i-
=71	=71	=71	=71	=71	=71	=71	=71
0D	-son,	[0d	-son,	1f	-son,	[0dd	-son,
.	.	.	.	2r	.	.	.
.	.	.	.	2d	Ky-	.	.
=72	=72	=72	=72	=72	=72	=72	=72
2r	.	1d]	.	2.f	-ri-	1dd]	.
2d	Ky-	.	.	.	.	.	.
.	.	.	.	4g	.	.	.
1f	-ri-	1r	.	4a	.	1r	.
.	.	.	.	4b	.	.	.
.	.	.	.	[2cc	.	.	.
=73	=73	=73	=73	=73	=73	=73	=73
1e	-e	0r	.	2cc]	.	0r	.
.	.	.	.	2b	-e	.	.
2c	e-	.	.	4cc	.	.	.
.	.	.	.	4b	.	.	.
[2d	-le-	.	.	4a	.	.	.
.	.	.	.	4g	.	.	.
=74	=74	=74	=74	=74	=74	=74	=74
4d]	.	1r	.	4f	.	1r	.
4c	.	.	.	4e	.	.	.
4B	.	.	.	1a	.	.	.
4A	.	.	.	.	.	.	.
1B	-i-	2r	.	.	.	2r	.
.	.	2d	Ky-	2g#i	e-	[2dd	Ky-
=75	=75	=75	=75	=75	=75	=75	=75
0A	-son,	1f	-ri-	1a	-le-	2dd]	.
.	.	.	.	.	.	4cc	.
.	.	.	.	.	.	4b	.
.	.	1e	-e	2.a	-i-	1cc	-ri-
.	.	.	.	4g	.	.	.
=76	=76	=76	=76	=76	=76	=76	=76
2r	.	2c	e-	2e	.	2a	-e
2D	Ky-	2.d	-le-	2.f	.	2.b	e-
1F	-ri-	.	.	.	.	.	.
.	.	4c	.	4e	.	4a	.
.	.	4B	.	4c	.	[2a	-le-
.	.	4A	.	4d	.	.	.
=77	=77	=77	=77	=77	=77	=77	=77
1E	-e	1B	.	1e	-son,	2a]	.
.	.	.	.	.	.	2g#i	-i-
2C	e-	1A	-i-	1r	.	[1a	-son,
[2D	-le-	.	.	.	.	.	.
=78	=78	=78	=78	=78	=78	=78	=78
4D]	.	1d	-son	1r	.	1a]	.
4E	.	.	.	.	.	.	.
4F	.	.	.	.	.	.	.
4G	.	.	.	.	.	.	.
2.A	.	2.c	Ky-	2r	.	1r	.
.	.	.	.	[2a	Ky-	.	.
4B	.	4d	.	.	.	.	.
=79	=79	=79	=79	=79	=79	=79	=79
2c	.	2e	-ri-	2a]	.	0r	.
2.d	.	1f	-e	2a	-ri-	.	.
.	.	.	.	2f	-e	.	.
4c	.	.	.	.	.	.	.
2B	.	2d	e-	2g	e-	.	.
=80	=80	=80	=80	=80	=80	=80	=80
1A	-i-	2e	-le-	1a	-le-	1r	.
.	.	2f	-i-	.	.	.	.
1G	-son,	1g	-son	2.b-i	.	2r	.
.	.	.	.	.	.	[2dd	Ky-
.	.	.	.	4a	.	.	.
=81	=81	=81	=81	=81	=81	=81	=81
1r	.	0r	.	2g	.	2dd]	.
.	.	.	.	2f	.	2dd	-ri-
2r	.	.	.	2g	.	2.b	-e
2G	Ky-	.	.	[2d	.	.	.
.	.	.	.	.	.	4cc	.
=82	=82	=82	=82	=82	=82	=82	=82
1B-i	-ri-	2r	.	4d]	.	1dd	.
.	.	.	.	4e	.	.	.
.	.	2d	Ky-	4f	.	.	.
.	.	.	.	4g	.	.	.
2.A	-e	2e	-ri-	[1a	.	1cc	.
.	.	[2f	.	.	.	.	.
4G	.	.	.	.	.	.	.
=83	=83	=83	=83	=83	=83	=83	=83
2F	e-	4f]	.	2a]	.	2r	.
.	.	4e	.	.	.	.	.
2G	-lei-	2.d	.	2g	.	2dd	e-
1D	-son,	.	.	2f	.	1ff	-le-
.	.	4c	.	.	.	.	.
.	.	4A	.	[2a	.	.	.
.	.	4B	.	.	.	.	.
=84	=84	=84	=84	=84	=84	=84	=84
2r	.	1c	-e	4a]	.	2.ee	.
.	.	.	.	4g	.	.	.
1A	Ky-	.	.	2.e	.	.	.
.	.	.	.	.	.	4dd	.
.	.	2r	.	.	.	2cc	.
.	.	.	.	4f	.	.	.
2G	-ri-	2d	e-	2g	.	2b	.
=85	=85	=85	=85	=85	=85	=85	=85
2.F	-e	1f	-le-	2c	.	4a	.
.	.	.	.	.	.	4b	.
.	.	.	.	2.cc	.	4cc	.
4E	.	.	.	.	.	4dd	.
2C	.	2e	.	.	.	2ee	.
.	.	.	.	4b	.	.	.
2D	e-	2d	.	[2a	.	[2ff	.
=86	=86	=86	=86	=86	=86	=86	=86
2A	-le-	2c	.	2a]	.	4ff]	.
.	.	.	.	.	.	4ee	.
2B	.	2d	.	2g	.	1dd	.
1A	.	1e	-i-	1a	-i-	.	.
.	.	.	.	.	.	2cc#i	-i-
=87	=87	=87	=87	=87	=87	=87	=87
1D	.	[0dl	-son.	1f	.	[0ddl	-son.
[1G	.	.	.	[1b-i	.	.	.
=88	=88	=88	=88	=88	=88	=88	=88
2G]	.	0d_	.	2b-]	.	0dd_	.
2F	.	.	.	2a	.	.	.
1G	-i-	.	.	1g	.	.	.
=89	=89	=89	=89	=89	=89	=89	=89
00Dl	-son.	00d]	.	00fl	-son.	00dd]	.
==	==	==	==	==	==	==	==
*-	*-	*-	*-	*-	*-	*-	*-
!!!system-decoration: [*]
!!!RDF**kern: i = editorial accidental
!!!RDF**kern: l = terminal long
!!!ENC: Benjamin Ory
!!!END: 2024/6/4
!!!EED: Benjamin Ory
!!!EEV: 2024/06/04
!!!YEC: Copyright 2024 Benjamin Ory, All Rights Reserved
!!!ONB: Translated from MusicXML on 2024/06/04
